logos/fossa.svg

<svg xmlns="http://www.w3.org/2000/svg" role="img" viewBox="-2.94 -2.94 153.01 37.76"><title>FOSSA logo</title><path fill="#0E1826" d="M17.0769 19.1285H6.24249V30.7836C6.24249 30.9841 6.16283 31.1764 6.02103 31.3182 5.87923 31.46 5.68691 31.5397 5.48638 31.5397H.756107C.555575 31.5397.363256 31.46.221458 31.3182.0796609 31.1764 0 30.9841 0 30.7836V1.27697C.00481407 1.07965.0865952.892039.227874.754206.369153.616373.558729.539248.756107.539307H20.3134C20.514.539307 20.7063.618968 20.8481.760766 20.9899.902563 21.0696 1.09488 21.0696 1.29541V5.54621C21.0696 5.74674 20.9899 5.93906 20.8481 6.08086 20.7063 6.22265 20.514 6.30231 20.3134 6.30231H6.24249V13.3839H17.0769C17.2775 13.3839 17.4698 13.4636 17.6116 13.6054 17.7534 13.7472 17.833 13.9395 17.833 14.14V18.3908C17.8282 18.5881 17.7465 18.7757 17.6052 18.9136 17.4639 19.0514 17.2743 19.1285 17.0769 19.1285zM41.777.00191689C43.854-.0285688 45.9183.331124 47.8627 1.06231 49.4978 1.65898 50.9966 2.57768 52.2702 3.76401 53.3892 4.87802 54.3231 6.16361 55.0365 7.5722 55.7485 8.91186 56.2758 10.3418 56.604 11.823 56.8968 13.1899 57.0452 14.5837 57.0466 15.9816 57.0459 17.4008 56.8976 18.8162 56.604 20.2047 56.2783 21.6925 55.7509 23.1289 55.0365 24.4739 54.3233 25.8827 53.3895 27.1683 52.2702 28.2821 50.9989 29.4649 49.4989 30.3749 47.8627 30.9562 45.915 31.6732 43.8522 32.0264 41.777 31.9981 39.6865 32.0291 37.6081 31.6759 35.6451 30.9562 34.0088 30.3751 32.5088 29.4651 31.2376 28.2821 30.1006 27.1686 29.1454 25.8836 28.4068 24.4739 27.6773 23.1328 27.1403 21.6956 26.8116 20.2047 26.5179 18.8162 26.3695 17.4008 26.369 15.9816 26.3702 14.5837 26.5186 13.1898 26.8116 11.823 27.1428 10.3387 27.6797 8.90794 28.4068 7.5722 29.1485 6.16209 30.1068 4.87707 31.2468 3.76401 32.5203 2.57748 34.0191 1.65876 35.6543 1.06231 37.6112.329959 39.6878-.0296962 41.777.00191689zM41.777 26.2075C43.1189 26.2264 44.4472 25.9362 45.6589 25.3591 46.6701 24.896 47.5626 24.2086 48.2684 23.349 48.9091 22.5271 49.422 21.6131 49.7898 20.6381 50.1279 19.786 50.3811 18.9027 50.5459 18.0009 50.6577 17.3273 50.7163 16.6459 50.7211 15.9631 50.7162 15.2803 50.6577 14.599 50.5459 13.9253 50.3821 13.0323 50.1288 12.1581 49.7898 11.3159 49.4278 10.3598 48.9276 9.46204 48.3053 8.65104 47.5916 7.7888 46.685 7.10653 45.6589 6.65934 44.439 6.11446 43.1126 5.8498 41.777 5.88479 40.4046 5.85846 39.0437 6.13883 37.7936 6.70545 36.778 7.14039 35.8781 7.80664 35.1656 8.65104 34.5442 9.47088 34.0413 10.3742 33.6719 11.3343 33.3192 12.1718 33.0655 13.0475 32.9158 13.9438 32.7089 15.2944 32.7089 16.6687 32.9158 18.0194 33.0674 18.9182 33.3211 19.7968 33.6719 20.6381 34.041 21.6059 34.5472 22.5158 35.1749 23.3398 35.8872 24.2041 36.7898 24.8921 37.812 25.3499 39.0541 25.9214 40.4101 26.2021 41.777 26.1706V26.2075zM69.2339 8.7626C69.2462 9.23515 69.3899 9.69493 69.6489 10.0904 70.0128 10.5582 70.484 10.9314 71.0228 11.1785 71.6682 11.5166 72.2153 11.7747 72.6641 11.953 73.1128 12.1313 73.8658 12.3956 74.9232 12.746L77.09 13.5021C77.5019 13.6496 78.1873 13.9232 79.1463 14.3228 79.8846 14.6096 80.5946 14.9646 81.2671 15.3831 81.722 15.6905 82.2906 16.1177 82.9729 16.6648 83.5695 17.1179 84.0735 17.6813 84.4575 18.3246 84.8274 18.9729 85.1184 19.6633 85.3242 20.3808 85.5474 21.2252 85.6285 22.1009 85.564 22.9719 85.5032 24.2154 85.1703 25.4305 84.5888 26.5314 84.0073 27.6323 83.1913 28.5922 82.1984 29.3434 79.9283 31.087 77.1195 31.9808 74.2593 31.87 70.3144 31.8719 66.4272 30.923 62.9269 29.1037 62.8399 29.0597 62.7635 28.9973 62.703 28.9209 62.6425 28.8445 62.5994 28.7559 62.5765 28.6611 62.5036 28.4775 62.5036 28.273 62.5765 28.0894L64.6143 24.2351C64.6554 24.1443 64.714 24.0626 64.7868 23.9945 64.8596 23.9265 64.9451 23.8735 65.0384 23.8386 65.1285 23.799 65.2259 23.7785 65.3243 23.7785 65.4227 23.7785 65.5201 23.799 65.6101 23.8386 68.1844 25.1661 71.0154 25.921 73.9089 26.0516 75.0946 26.0962 76.2704 25.819 77.3113 25.2494 77.7163 25.0343 78.067 24.7299 78.3369 24.3593 78.6069 23.9887 78.7891 23.5616 78.8697 23.1102 78.967 22.6286 78.9181 22.1289 78.7291 21.6754 78.5401 21.2218 78.2198 20.8352 77.8093 20.5652 76.6213 19.766 75.3097 19.1678 73.9273 18.7948 71.7392 18.2016 69.6072 17.4179 67.5557 16.4528 64.4821 14.7992 62.9453 12.3403 62.9453 9.07611 62.8859 7.84049 63.1034 6.6072 63.582 5.46649 64.0607 4.32578 64.7883 3.3065 65.7116 2.48323 67.7448.799778 70.3312-.0678324 72.9683.0489372 76.655.136292 80.2827.993742 83.6184 2.56622 83.716 2.60003 83.8047 2.65558 83.8778 2.72868 83.9508 2.80179 84.0063 2.89053 84.0401 2.98821 84.0738 3.08589 84.0849 3.18996 84.0726 3.29256 84.0602 3.39517 84.0247 3.49363 83.9688 3.58051L82.3275 7.43481C82.293 7.53274 82.2387 7.62253 82.1681 7.69858 82.0974 7.77462 82.0118 7.8353 81.9166 7.87682 81.8215 7.91834 81.7188 7.93982 81.615 7.93992 81.5111 7.94002 81.4084 7.91874 81.3132 7.8774 78.8359 6.72704 76.1649 6.05146 73.4386 5.88571 70.7277 5.88571 69.3261 6.84467 69.2339 8.7626zM97.6519 8.76275C97.6724 9.23802 97.8257 9.69802 98.0945 10.0905 98.4584 10.5584 98.9296 10.9316 99.4684 11.1786 100.114 11.5167 100.661 11.7749 101.11 11.9532 101.558 12.1314 102.311 12.3958 103.369 12.7461L105.536 13.5023C105.948 13.6498 106.633 13.9233 107.592 14.3229 108.33 14.6094 109.04 14.9644 109.713 15.3833 110.168 15.6907 110.736 16.1179 111.419 16.665 112.015 17.1178 112.519 17.6813 112.903 18.3247 113.247 18.9767 113.513 19.6669 113.696 20.381 113.92 21.2253 114.001 22.101 113.936 22.972 113.875 24.2156 113.542 25.4307 112.961 26.5316 112.379 27.6325 111.563 28.5924 110.57 29.3436 108.305 31.083 105.504 31.9766 102.65 31.8701 98.7047 31.8721 94.8175 30.9232 91.3172 29.1039 91.2302 29.0599 91.1538 28.9975 91.0933 28.9211 91.0328 28.8447 90.9897 28.756 90.9668 28.6613 90.8939 28.4777 90.8939 28.2732 90.9668 28.0896L93.0046 24.2353C93.0497 24.1461 93.1121 24.0668 93.188 24.002 93.264 23.9371 93.3521 23.8879 93.4472 23.8572 93.5373 23.8176 93.6346 23.7971 93.733 23.7971 93.8314 23.7971 93.9288 23.8176 94.0189 23.8572 96.5932 25.1847 99.4241 25.9396 102.318 26.0702 103.496 26.1142 104.665 25.8403 105.702 25.2772 106.112 25.0604 106.466 24.7522 106.738 24.3765 107.01 24.0007 107.192 23.5675 107.269 23.1103 107.365 22.6288 107.316 22.1295 107.127 21.6762 106.938 21.223 106.618 20.8362 106.209 20.5654 105.026 19.7682 103.721 19.1702 102.345 18.795 100.157 18.2017 98.0252 17.418 95.9737 16.4529 92.9001 14.7993 91.3633 12.3404 91.3633 9.07626 91.3038 7.84064 91.5214 6.60735 92 5.46664 92.4786 4.32593 93.2062 3.30665 94.1295 2.48338 96.1623.799142 98.749-.0685724 101.386.0490862 105.082.132321 108.72.989877 112.064 2.56637 112.162 2.60018 112.25 2.65573 112.323 2.72883 112.396 2.80194 112.452 2.89068 112.486 2.98836 112.519 3.08604 112.531 3.19011 112.518 3.29271 112.506 3.39532 112.47 3.49378 112.414 3.58066L110.773 7.43496C110.739 7.53289 110.684 7.62268 110.614 7.69873 110.543 7.77477 110.457 7.83545 110.362 7.87697 110.267 7.91849 110.164 7.93997 110.061 7.94007 109.957 7.94017 109.854 7.91889 109.759 7.87755 107.273 6.72384 104.592 6.04818 101.857 5.88586 99.1395 5.88586 97.7379 6.84482 97.6519 8.76275zM133.549.549529L147.177 30.7938C147.214 30.8716 147.233 30.9566 147.233 31.0427 147.233 31.1289 147.214 31.2139 147.177 31.2917 147.141 31.3683 147.083 31.4326 147.011 31.4769 146.939 31.5211 146.856 31.5433 146.771 31.5407H141.239C141.009 31.5644 140.779 31.5061 140.588 31.3761 140.397 31.2462 140.259 31.053 140.197 30.8307L137.523 24.2839H127.832L125.185 30.7938C125.114 31.0122 124.972 31.2006 124.782 31.3292 124.591 31.4578 124.363 31.5192 124.134 31.5038H118.519C118.434 31.5064 118.351 31.4842 118.279 31.44 118.206 31.3958 118.149 31.3314 118.113 31.2548 118.069 31.1786 118.042 31.0939 118.034 31.0063 118.026 30.9188 118.037 30.8305 118.067 30.7477L131.612.540308C131.726.409493 131.869.305967 132.028.237349 132.188.168732 132.361.136769 132.534.143813 132.724.119702 132.917.1443 133.094.215286 133.271.286272 133.428.401305 133.549.549529zM132.626 12.3614L129.86 19.3139H135.393L132.626 12.3614z"/></svg>

<svg xmlns="http://www.w3.org/2000/svg" viewBox="-2.94 -2.94 153.01 37.76">
	<path fill="#0E1826" d="M17.077 19.128H6.242v11.656a.756.756 0 0 1-.756.756H.756A.756.756 0 0 1 0 30.784V1.277A.756.756 0 0 1 .756.539h19.557a.756.756 0 0 1 .757.756v4.251a.756.756 0 0 1-.757.756H6.243v7.082h10.834a.756.756 0 0 1 .756.756v4.25a.756.756 0 0 1-.756.738zM41.777.002c2.077-.03 4.141.33 6.086 1.06a13.01 13.01 0 0 1 4.407 2.702 14.826 14.826 0 0 1 2.766 3.808c.712 1.34 1.24 2.77 1.568 4.251a19.95 19.95 0 0 1 .443 4.159c-.001 1.419-.15 2.834-.443 4.223a16.727 16.727 0 0 1-1.568 4.269 14.807 14.807 0 0 1-2.766 3.808 12.724 12.724 0 0 1-4.407 2.674 16.947 16.947 0 0 1-6.086 1.042 17.078 17.078 0 0 1-6.132-1.042 12.716 12.716 0 0 1-4.407-2.674 15.211 15.211 0 0 1-2.831-3.808 16.261 16.261 0 0 1-1.595-4.27 20.442 20.442 0 0 1-.443-4.222c.001-1.398.15-2.792.443-4.159a16.33 16.33 0 0 1 1.595-4.25c.741-1.41 1.7-2.696 2.84-3.809a13.001 13.001 0 0 1 4.407-2.702 16.745 16.745 0 0 1 6.123-1.06zm0 26.206a8.741 8.741 0 0 0 3.882-.849 7.32 7.32 0 0 0 2.61-2.01 10.353 10.353 0 0 0 1.52-2.71A13.95 13.95 0 0 0 50.547 18c.112-.674.17-1.355.175-2.038a13.017 13.017 0 0 0-.175-2.038 13.521 13.521 0 0 0-.756-2.61 10.464 10.464 0 0 0-1.485-2.664 7.137 7.137 0 0 0-2.646-1.992 8.944 8.944 0 0 0-3.882-.774 9.22 9.22 0 0 0-3.983.82 7.091 7.091 0 0 0-2.628 1.946 10.954 10.954 0 0 0-1.494 2.683 11.681 11.681 0 0 0-.756 2.61 13.458 13.458 0 0 0 0 4.075c.151.9.405 1.778.756 2.62.369.967.875 1.877 1.503 2.7a7.266 7.266 0 0 0 2.637 2.01 8.99 8.99 0 0 0 3.965.822v.037zM69.234 8.762c.012.472.156.932.415 1.327.364.468.835.841 1.374 1.088.645.339 1.192.597 1.641.775a46.82 46.82 0 0 0 2.26.793l2.166.756c.412.148 1.097.421 2.056.82.739.288 1.449.643 2.121 1.061.455.308 1.024.735 1.706 1.282a5.848 5.848 0 0 1 1.484 1.66c.37.648.661 1.338.867 2.056.223.844.305 1.72.24 2.59a8.511 8.511 0 0 1-3.366 6.372 12.255 12.255 0 0 1-7.939 2.527 24.547 24.547 0 0 1-11.332-2.766.673.673 0 0 1-.35-.443.775.775 0 0 1 0-.572l2.037-3.854a.757.757 0 0 1 .424-.396.71.71 0 0 1 .572 0 20.083 20.083 0 0 0 8.299 2.213 6.573 6.573 0 0 0 3.402-.803 3.023 3.023 0 0 0 1.559-2.139 2.462 2.462 0 0 0-1.06-2.545c-1.189-.799-2.5-1.397-3.883-1.77a38.845 38.845 0 0 1-6.371-2.342c-3.074-1.654-4.61-4.113-4.61-7.377a8.3 8.3 0 0 1 2.766-6.593A10.64 10.64 0 0 1 72.968.05c3.687.087 7.315.945 10.65 2.517a.683.683 0 0 1 .35 1.015l-1.64 3.854a.758.758 0 0 1-1.015.442 21.845 21.845 0 0 0-7.874-1.991c-2.711 0-4.113.959-4.205 2.877zm28.418 0c.02.475.174.935.442 1.328.364.467.836.84 1.374 1.088.646.338 1.193.596 1.642.774.448.178 1.201.443 2.259.793l2.167.756c.412.148 1.097.421 2.056.82.738.287 1.448.642 2.121 1.061.455.308 1.023.735 1.706 1.282a5.85 5.85 0 0 1 1.484 1.66c.344.652.61 1.342.793 2.056a7.83 7.83 0 0 1 .24 2.591 8.517 8.517 0 0 1-3.366 6.372 12.253 12.253 0 0 1-7.92 2.526 24.546 24.546 0 0 1-11.333-2.766.673.673 0 0 1-.35-.443.775.775 0 0 1 0-.571l2.038-3.855a.754.754 0 0 1 .442-.378.71.71 0 0 1 .572 0 20.082 20.082 0 0 0 8.299 2.213 6.578 6.578 0 0 0 3.384-.793 3.024 3.024 0 0 0 1.567-2.167 2.47 2.47 0 0 0-1.06-2.545 13.063 13.063 0 0 0-3.864-1.77 38.855 38.855 0 0 1-6.371-2.342c-3.074-1.654-4.61-4.113-4.61-7.377a8.298 8.298 0 0 1 2.765-6.593A10.631 10.631 0 0 1 101.386.05c3.696.083 7.334.94 10.678 2.517a.678.678 0 0 1 .422.422.683.683 0 0 1-.072.593l-1.641 3.854a.758.758 0 0 1-.712.505.756.756 0 0 1-.302-.062 21.847 21.847 0 0 0-7.902-1.992c-2.718 0-4.12.959-4.205 2.877zM133.549.55l13.628 30.244a.58.58 0 0 1 0 .498.435.435 0 0 1-.406.249h-5.532a.978.978 0 0 1-1.042-.71l-2.674-6.547h-9.691l-2.647 6.51a1.032 1.032 0 0 1-1.051.71h-5.615a.432.432 0 0 1-.406-.25.607.607 0 0 1-.046-.506L131.612.54a1.164 1.164 0 0 1 .922-.396 1.125 1.125 0 0 1 1.015.406zm-.923 11.811-2.766 6.953h5.533l-2.767-6.953z"/>
</svg>
